assets/zoom-out.svg

<svg xmlns="http://www.w3.org/2000/svg" fill="none" viewBox="0 0 28 28">
  <path fill="#2A2238" fill-rule="evenodd" d="M11.3749 20.9998c1.2639 0 2.5155-.249 3.6833-.7327 1.1677-.4837 2.2287-1.1927 3.1225-2.0864.8937-.8938 1.6027-1.9548 2.0864-3.1225.4837-1.1678.7327-2.4194.7327-3.6833 0-1.264-.249-2.51557-.7327-3.68332-.4837-1.16774-1.1927-2.22878-2.0864-3.12254-.8938-.89375-1.9548-1.60271-3.1225-2.08641-1.1678-.4837-2.4194-.73265-3.6833-.73265-2.55271 0-5.00084 1.01405-6.80586 2.81906-1.80501 1.80502-2.81906 4.25315-2.81906 6.80586 0 2.5526 1.01405 5.0008 2.81906 6.8058 1.80502 1.805 4.25315 2.8191 6.80586 2.8191Zm11.3748-9.6249c0 2.4335-.7798 4.7867-2.2011 6.7254.0713.0531.1384.1115.2009.1747l6.7374 6.7374c.3282.3284.5124.7737.5122 1.2379-.0001.4642-.1847.9093-.5131 1.2375-.3283.3281-.7736.5124-1.2378.5122-.4642-.0002-.9094-.1847-1.2375-.5131l-6.7374-6.7374c-.0627-.0644-.1184-.1306-.1707-.2001.4877-.3588.9454-.7553 1.3691-1.1853l-.0536.054c-2.1332 2.1332-5.0264 3.3316-8.0432 3.3316-3.01684 0-5.91008-1.1984-8.04328-3.3316C1.19842 17.2849 0 14.3917 0 11.3749c0-3.01684 1.19842-5.91008 3.33162-8.04328C5.46482 1.19842 8.35806 0 11.3749 0c3.0168 0 5.91 1.19842 8.0432 3.33162 2.1332 2.1332 3.3316 5.02644 3.3316 8.04328Zm-4.6471 9.1745-.0008.0006v-.0018l.0008.0012ZM5.50622 10.7562c-.1641.164-.25628.3866-.25628.6187 0 .232.09218.4546.25628.6187.16409.1641.38665.2563.61871.2563H16.6248c.2321 0 .4546-.0922.6187-.2563.1641-.1641.2563-.3867.2563-.6187 0-.2321-.0922-.4547-.2563-.6187-.1641-.1641-.3866-.2563-.6187-.2563H6.12493c-.23206 0-.45462.0922-.61871.2563Z" clip-rule="evenodd"/>
</svg>

<svg width="28" height="28" viewBox="0 0 28 28" fill="none" xmlns="http://www.w3.org/2000/svg">
<path fill-rule="evenodd" clip-rule="evenodd" d="M11.3749 20.9998C12.6388 20.9998 13.8904 20.7508 15.0582 20.2671C16.2259 19.7834 17.2869 19.0744 18.1807 18.1807C19.0744 17.2869 19.7834 16.2259 20.2671 15.0582C20.7508 13.8904 20.9998 12.6388 20.9998 11.3749C20.9998 10.1109 20.7508 8.85933 20.2671 7.69158C19.7834 6.52384 19.0744 5.4628 18.1807 4.56904C17.2869 3.67529 16.2259 2.96633 15.0582 2.48263C13.8904 1.99893 12.6388 1.74998 11.3749 1.74998C8.82219 1.74998 6.37406 2.76403 4.56904 4.56904C2.76403 6.37406 1.74998 8.82219 1.74998 11.3749C1.74998 13.9275 2.76403 16.3757 4.56904 18.1807C6.37406 19.9857 8.82219 20.9998 11.3749 20.9998ZM22.7497 11.3749C22.7497 13.8084 21.9699 16.1616 20.5486 18.1003C20.6199 18.1534 20.687 18.2118 20.7495 18.275L27.4869 25.0124C27.8151 25.3408 27.9993 25.7861 27.9991 26.2503C27.999 26.7145 27.8144 27.1596 27.486 27.4878C27.1577 27.8159 26.7124 28.0002 26.2482 28C25.784 27.9998 25.3388 27.8153 25.0107 27.4869L18.2733 20.7495C18.2106 20.6851 18.1549 20.6189 18.1026 20.5494C18.5903 20.1906 19.048 19.7941 19.4717 19.3641L19.4181 19.4181C17.2849 21.5513 14.3917 22.7497 11.3749 22.7497C8.35806 22.7497 5.46482 21.5513 3.33162 19.4181C1.19842 17.2849 0 14.3917 0 11.3749C0 8.35806 1.19842 5.46482 3.33162 3.33162C5.46482 1.19842 8.35806 0 11.3749 0C14.3917 0 17.2849 1.19842 19.4181 3.33162C21.5513 5.46482 22.7497 8.35806 22.7497 11.3749ZM18.1026 20.5494L18.1018 20.55V20.5482L18.1026 20.5494ZM5.50622 10.7562C5.34212 10.9202 5.24994 11.1428 5.24994 11.3749C5.24994 11.6069 5.34212 11.8295 5.50622 11.9936C5.67031 12.1577 5.89287 12.2499 6.12493 12.2499H16.6248C16.8569 12.2499 17.0794 12.1577 17.2435 11.9936C17.4076 11.8295 17.4998 11.6069 17.4998 11.3749C17.4998 11.1428 17.4076 10.9202 17.2435 10.7562C17.0794 10.5921 16.8569 10.4999 16.6248 10.4999H6.12493C5.89287 10.4999 5.67031 10.5921 5.50622 10.7562Z" fill="#2A2238"/>
</svg>
